X: 30028
T: Off To Alaska
R: polka
M: 2/4
K: Dmajor
|:d3/2e/ fd|efge|d3/2e/ fd|ec A2|d3/2e/ fd|efge|a3/2b/ ag|ec d2:|
|:a3/2b/ af|ecef|a3/2b/ af|ec e2|a3/2b/ af|ecBA|de/f/ gf|ec d2:|

